img/keyfeature-block.svg

<svg fill="none" height="64" viewBox="0 0 64 64" width="64" xmlns="http://www.w3.org/2000/svg"><rect fill="#151923" height="64" rx="8" width="64"/><path d="m15.3367 18.3844 10.7932-6.4759c.9036-.5422 1.4565-1.5187 1.4565-2.57251v-7.5698c0-.777293-.848-1.257407-1.5145-.857492l-10.7352 6.441122c-.9501.57003-2.1369.57003-3.087 0l-10.7352-6.441122c-.666528-.399915-1.5145.080199-1.5145.857492v7.5698c0 1.05381.552897 2.03031 1.45651 2.57251l10.79319 6.4759c.9501.57 2.1369.57 3.087 0z" fill="#edf0f5" transform="translate(18 28.6897)"/><path d="m1.42915 7.41842 10.82055-6.492327c.9501-.570029 2.1369-.570029 3.087 0l10.8205 6.492327c.6474.38841.6474 1.32659 0 1.71499l-10.8205 6.49229c-.9501.5701-2.137.5701-3.087 0l-10.82055-6.49229c-.647334-.3884-.647334-1.32658 0-1.71499z" fill="#808ba8" transform="translate(18 16)"/></svg>

<svg width="64" height="64" viewBox="0 0 64 64" fill="none" xmlns="http://www.w3.org/2000/svg">
<rect width="64" height="64" rx="8" fill="#151923"/>
<path d="M15.3367 18.3844L26.1299 11.9085C27.0335 11.3663 27.5864 10.3898 27.5864 9.33599V1.76619C27.5864 0.988897 26.7384 0.508783 26.0719 0.908698L15.3367 7.34982C14.3866 7.91985 13.1998 7.91985 12.2497 7.34982L1.5145 0.908698C0.847972 0.508783 0 0.988897 0 1.76619V9.33599C0 10.3898 0.552897 11.3663 1.45651 11.9085L12.2497 18.3844C13.1998 18.9544 14.3866 18.9544 15.3367 18.3844Z" transform="translate(18 28.6897)" fill="#EDF0F5"/>
<path d="M1.42915 7.41842L12.2497 0.926093C13.1998 0.356064 14.3866 0.356064 15.3367 0.926093L26.1572 7.41842C26.8046 7.80683 26.8046 8.74501 26.1572 9.13341L15.3367 15.6257C14.3866 16.1958 13.1997 16.1958 12.2497 15.6257L1.42915 9.13341C0.781816 8.74501 0.781816 7.80683 1.42915 7.41842Z" transform="translate(18 16)" fill="#808BA8"/>
</svg>
